X: 3595
T: Bill Connor's
R: reel
M: 4/4
K: Dmajor
A2 AF Adfd|BAFA Be e2|defd A2 fg|afeg fd d2|
d/c/B c/B/A BAFA|Beee gece|defd A2 fg|afea fA d2||
a2 fa bf f2|afed Beef|a2 fa bff2|ABde fA d2|
a2 fa bf f2|a2 fd Beef|a3 d' babc'|d'baf egfe||

